X:1
T:The Horn of the Hunter
M:3/4
L:1/4
K:C
 G/2G/2| G G G| E F G| G F2-| F2 E/2E/2| D D D| G G F| E3-| E2 G| G G G|\
 E F G| G F2-| F2F/2-E/2| D D D| G F D| C3-| C2||
